X: 9
T:Earl of Morton's Jig
M:6/8
L:1/8
Q:112
C:William Gow
S:Beauties of Gow (Some written ornaments simplified)
R:Jig
K:C
 |: F | "C"E/F/GG cdc | "G"BAB "C"cGE | "Dm"FdF "C"EcE | "G7"dDD D2 F |
!
"C"E/F/GG cdc | "G"BAB "C"cGE | "Dm"FEF "G"DGF | "C"ECC C2 :| !
f | "C"ecc gcc | "F"acc "C"gcc | "C"ecc gcc | "G7"fdd d2f | !
"C"ecc gcc | "F"acc "C"gcc | "Dm"fef "G"dgf | "C"ecc c2 f | !
"C"ecc gcc | "F"acc "C"gcc | "C"ecc gcc | "G7"fdd d2 G/F/ | !
"C"E/F/GG cdc | "G"BAB "C"cGE | "Dm"FEF "G"DGF | "C"ECC C2 ||

